svgs/reddit.svg

<svg width="192" height="192" viewBox="0 0 192 192" fill="none" xmlns="http://www.w3.org/2000/svg"><path d="m33.067 111.226 5.826 1.435a6 6 0 0 0-3.978-7.143l-1.848 5.708Zm17.548-25.068-4.728 3.694a6 6 0 0 0 8.341 1.096l-3.613-4.79Zm90.77 0-3.613 4.79a6 6 0 0 0 8.341-1.096l-4.728-3.694Zm17.548 25.068-1.848-5.708a6 6 0 0 0-3.978 7.143l5.826-1.435ZM96 174.001c18.846 0 36.138-5.722 48.855-15.259C157.573 149.203 166 135.568 166 120.001h-12c0 10.943-5.9 21.307-16.345 29.141-10.447 7.835-25.155 12.859-41.655 12.859v12Zm-70-54c0 15.567 8.427 29.202 21.145 38.741 12.717 9.537 30.01 15.259 48.855 15.259v-12c-16.5 0-31.208-5.024-41.655-12.859C43.9 141.308 38 130.944 38 120.001H26Zm1.241-10.21A42.616 42.616 0 0 0 26 120.001h12c0-2.505.306-4.956.893-7.34l-11.652-2.87ZM16 96.001c0 9.793 6.394 18.076 15.219 20.933l3.696-11.416A10.007 10.007 0 0 1 28 96.001H16Zm22-22c-12.15 0-22 9.85-22 22h12c0-5.523 4.477-10 10-10v-12Zm17.343 8.463C51.326 77.324 45.049 74 38 74v12c3.2 0 6.047 1.496 7.887 3.851l9.456-7.388ZM96 66c-18.916 0-36.268 5.764-48.998 15.367l7.226 9.58C64.682 83.063 79.438 78 96 78V66Zm48.998 15.367C132.268 71.765 114.916 66 96 66v12c16.563 0 31.318 5.062 41.772 12.947l7.226-9.58Zm1.115 8.484a9.972 9.972 0 0 1 7.887-3.85v-12c-7.05 0-13.326 3.322-17.343 8.463l9.456 7.388Zm7.887-3.85c5.523 0 10 4.477 10 10h12c0-12.15-9.85-22-22-22v12Zm10 10c0 4.438-2.895 8.215-6.915 9.517l3.696 11.416c8.825-2.857 15.219-11.14 15.219-20.933h-12Zm2 24a42.63 42.63 0 0 0-1.241-10.21l-11.652 2.87c.587 2.384.893 4.835.893 7.34h12Z" fill="#000"/><circle cx="68" cy="110.001" r="12" fill="#000"/><circle cx="124" cy="110.001" r="12" fill="#000"/><path d="M120 138.001s-8 6-24 6-24-6-24-6" stroke="#000" stroke-width="12" stroke-linecap="round"/><circle cx="146" cy="36.001" r="12" stroke="#000" stroke-width="12"/><path fill-rule="evenodd" clip-rule="evenodd" d="M107.177 22.118a6 6 0 0 0-7.028 4.553l-10 44a6 6 0 1 0 11.702 2.66l8.704-38.3 24.074 4.815A11.985 11.985 0 0 1 134 36c0-3.036 1.127-5.808 2.986-7.922l-29.809-5.961Z" fill="#000"/></svg>

<svg id="vector" xmlns="http://www.w3.org/2000/svg" width="192" height="192" viewBox="0 0 192 192"><path fill="#000000" d="M33.067,111.226L38.893,112.661C39.646,109.605 37.909,106.487 34.915,105.518L33.067,111.226ZM50.615,86.158L45.887,89.852C47.903,92.432 51.614,92.919 54.228,90.948L50.615,86.158ZM141.385,86.158L137.772,90.948C140.386,92.919 144.097,92.432 146.113,89.852L141.385,86.158ZM158.933,111.226L157.085,105.518C154.091,106.487 152.354,109.605 153.107,112.661L158.933,111.226ZM96,174.001C114.846,174.001 132.138,168.279 144.855,158.742C157.573,149.203 166,135.568 166,120.001H154C154,130.944 148.1,141.308 137.655,149.142C127.208,156.977 112.5,162.001 96,162.001V174.001ZM26,120.001C26,135.568 34.427,149.203 47.145,158.742C59.862,168.279 77.154,174.001 96,174.001V162.001C79.5,162.001 64.792,156.977 54.345,149.142C43.9,141.308 38,130.944 38,120.001H26ZM27.241,109.791C26.427,113.097 26,116.512 26,120.001H38C38,117.496 38.306,115.045 38.893,112.661L27.241,109.791ZM16,96.001C16,105.794 22.394,114.077 31.219,116.934L34.915,105.518C30.895,104.216 28,100.439 28,96.001H16ZM38,74.001C25.85,74.001 16,83.851 16,96.001H28C28,90.478 32.477,86.001 38,86.001V74.001ZM55.343,82.464C51.326,77.323 45.049,74.001 38,74.001V86.001C41.2,86.001 44.047,87.497 45.887,89.852L55.343,82.464ZM96,66.001C77.084,66.001 59.732,71.765 47.002,81.368L54.228,90.948C64.682,83.063 79.437,78.001 96,78.001V66.001ZM144.998,81.368C132.268,71.765 114.916,66.001 96,66.001V78.001C112.563,78.001 127.318,83.063 137.772,90.948L144.998,81.368ZM146.113,89.852C147.953,87.497 150.8,86.001 154,86.001V74.001C146.95,74.001 140.674,77.323 136.657,82.464L146.113,89.852ZM154,86.001C159.523,86.001 164,90.478 164,96.001H176C176,83.851 166.15,74.001 154,74.001V86.001ZM164,96.001C164,100.439 161.105,104.216 157.085,105.518L160.781,116.934C169.606,114.077 176,105.794 176,96.001H164ZM166,120.001C166,116.512 165.573,113.097 164.759,109.791L153.107,112.661C153.694,115.045 154,117.496 154,120.001H166Z" id="path_0"/><path fill="#000000" d="M68,110.001m-12,0a12,12 0,1 1,24 0a12,12 0,1 1,-24 0" id="path_1"/><path fill="#000000" d="M124,110.001m-12,0a12,12 0,1 1,24 0a12,12 0,1 1,-24 0" id="path_2"/><path fill="#00000000" d="M120,138.001C120,138.001 112,144.001 96,144.001C80,144.001 72,138.001 72,138.001" stroke-width="12" stroke="#000000" stroke-linecap="round" id="path_3"/><path fill="#00000000" d="M146,36.001m-12,0a12,12 0,1 1,24 0a12,12 0,1 1,-24 0" stroke-width="12" stroke="#000000" id="path_4"/><path fill="#000000" d="M107.177,22.118C103.987,21.48 100.87,23.5 100.149,26.671L90.149,70.671C89.415,73.903 91.439,77.118 94.67,77.852C97.901,78.586 101.116,76.562 101.851,73.331L110.555,35.031L134.629,39.846C134.221,38.639 134,37.346 134,36.001C134,32.965 135.127,30.193 136.986,28.079L107.177,22.118Z" fill-rule="evenodd" id="path_5"/></svg>
